X:1
T:Gae To the Kye Wi' Me, Johnny
M:9/8
L:1/8
K:C
 c| G3/2 E/2 E E2 D C2 A,/2A,/2| G3/2 E/2 E E2 G A2 c| G3/2 E/2 E E2 D C2 A,/2A,/2|\
 EDC D/2 E3/2 G A3|
M:3/8
 z2 G|
M:9/8
 E3/2 G/2 A c3/2 d/2 c B/2 A3/2 G| E3/2 G/2 A c3/2 d/2 B c2 G| E3/2 G/2 A c3/2 d/2 c B/2 A3/2 G|\
 A3/2 G/2 E D/2- E3/2 G A2 c| G3/2 E/2 E E2 D C2 A,/2A,/2| G3/2 E/2 E|\
 E2 G A2 c| G3/2 E/2 E E2 D C2 A,/2A,/2| EDC D/2 E3/2 G A3|
